src/assets/image/briefcase-solid.svg

<svg aria-hidden="true" focusable="false" data-prefix="fas" data-icon="briefcase" class="svg-inline--fa fa-briefcase fa-w-16" role="img" xmlns="http://www.w3.org/2000/svg" viewBox="0 0 512 512"><path fill="currentColor" d="M320 336c0 8.84-7.16 16-16 16h-96c-8.84 0-16-7.16-16-16v-48H0v144c0 25.6 22.4 48 48 48h416c25.6 0 48-22.4 48-48V288H320v48zm144-208h-80V80c0-25.6-22.4-48-48-48H176c-25.6 0-48 22.4-48 48v48H48c-25.6 0-48 22.4-48 48v80h512v-80c0-25.6-22.4-48-48-48zm-144 0H192V96h128v32z"></path></svg>

<svg id="Calque_1" data-name="Calque 1" xmlns="http://www.w3.org/2000/svg" viewBox="0 0 512 448"><defs><style>.cls-1{fill:#ff6a14;}</style></defs><path class="cls-1" d="M320,336a16,16,0,0,1-16,16H208a16,16,0,0,1-16-16V288H0V432c0,25.6,22.4,48,48,48H464c25.6,0,48-22.4,48-48V288H320ZM464,128H384V80c0-25.6-22.4-48-48-48H176c-25.6,0-48,22.4-48,48v48H48c-25.6,0-48,22.4-48,48v80H512V176C512,150.4,489.6,128,464,128Zm-144,0H192V96H320Z" transform="translate(0 -32)"/></svg>
